X: 8896
T: Curlew Hills, The
R: barndance
M: 4/4
K: Dmajor
DEFG Adce|d2F2 A3F|GFEF G2AG|FADE FAFE|
DEFG Adce|d2F2 A3F|GFEF G2FE|D2F2 D2:|
FG|A2f2 G2e2|Fddc dAFD|EDEF GEFE|DDDE FEFG|
A2f2 G2e2|Fddc dAFD|EDEF G2FE|D2F2 D2:|

